;TIME:7453.36
;Filament used:9.74469m
;Layer height:0.200
; HEADER_BLOCK_START
; generated by Creality_Print V6.2.2.3203 on 2025-10-11 at 12:23:49
; total layer number: 84
; filament_density: 1.25
; filament_diameter: 1.75
; max_z_height: 10.12
; creality_uuid: fc61866d-3a1e-417d-95a3-3cff653caa2c
; HEADER_BLOCK_END

; MINX = 52.85
; MINY = 58.64
; MINZ = 0.00
; MAXX = 167.15
; MAXY = 161.36
; MAXZ = 10.05

; THUMBNAIL_BLOCK_START

;
; THUMBNAIL_BLOCK_END

; THUMBNAIL_BLOCK_START

;
; THUMBNAIL_BLOCK_END

; external perimeters extrusion width = 0.42mm
; perimeters extrusion width = 0.45mm
; infill extrusion width = 0.45mm
; solid infill extrusion width = 0.42mm
; top infill extrusion width = 0.42mm
; support material extrusion width = 0.38mm
; first layer extrusion width = 0.60mm

; EXECUTABLE_BLOCK_START
M73 P0 R124
M201 X5000 Y5000 Z500 E5000
M203 X500 Y500 Z30 E100
M204 P5000 R2500 T5000 ; sets acceleration (P, T) and retract acceleration (R), mm/sec^2
M205 X10.00 Y10.00 Z0.40 E5.00 ; sets the jerk limits, mm/sec
;TYPE:Custom
M220 S100 ;Reset Feedrate 
M221 S100 ;Reset Flowrate 
 
M140 S60 ;Set final bed temp 
G28 ;Home 
 
G92 E0 ;Reset Extruder 
G1 Z2.0 F3000 ;Move Z Axis up 
M104 S200 ;Set final nozzle temp 
G1 X-2.1 Y20 Z0.28 F5000.0 ;Move to start position 
M190 S60 ;Wait for bed temp to stabilize 
M109 S200 ;Wait for nozzle temp to stabilize 
G1 X-2.1 Y145.0 Z0.28 F1500.0 E15 ;Draw the first line 
G1 X-2.4 Y145.0 Z0.28 F5000.0 ;Move to side a little 
G1 X-2.4 Y20 Z0.28 F1500.0 E30 ;Draw the second line 
G92 E0  ;Reset Extruder 
G1 E-1.0000 F1800 ;Retract a bit 
G1 Z2.0 F3000 ;Move Z Axis up 
G1 E0.0000 F1800
G90
G21
M83 ; use relative distances for extrusion
;filament start gcode
G1 E-1 F2400
G1 Z.2 F4500
M106 S0
;LAYER_CHANGE
;Z:0.2
;HEIGHT:0.2
;BEFORE_LAYER_CHANGE
;0.2
G92 E0

;_SET_FAN_SPEED_CHANGING_LAYER
M204 P500
M205 X8 Y8
; printing object left_part.stl id:3168 copy 0
M204 T500
G1 X60.651 Y71.134 Z.4 F4500
G1 Z.2
G1 E1 F1800
;TYPE:Support
;WIDTH:0.6
G1 X68.288 Y71.134 E.33608
G1 X68.288 Y61.663 E.41678
G1 X86.262 Y61.663 E.79094
G1 X86.262 Y71.134 E.41678
G1 X91.053 Y71.134 E.21085
G1 X91.053 Y61.663 E.41678
G1 X109.027 Y61.663 E.79094
M73 P0 R123
G1 X109.027 Y71.134 E.41678
G1 X116.664 Y71.134 E.33608
G1 X116.664 Y61.663 E.41678
G1 X143.175 Y61.663 E1.16661
G1 X143.175 Y71.134 E.41678
G1 X150.812 Y71.134 E.33608
G1 X150.812 Y61.663 E.41678
G1 X164.125 Y61.663 E.58583
G1 X164.125 Y83.416 E.95727
G1 X154.558 Y83.416 E.42101
G1 X154.558 Y91.053 E.33608
G1 X164.125 Y91.053 E.42101
G1 X164.125 Y103.336 E.54049
G1 X154.558 Y103.336 E.42101
G1 X154.558 Y110.973 E.33608
G1 X164.125 Y110.973 E.42101
G1 X164.125 Y120.41 E.41527
G1 X154.558 Y120.41 E.42101
G1 X154.558 Y128.047 E.33608
G1 X164.125 Y128.047 E.42101
G1 X164.125 Y131.813 E.16571
G1 X122.356 Y131.813 E1.83807
G1 X122.356 Y120.41 E.50178
G1 X114.718 Y120.41 E.33608
G1 X114.718 Y131.813 E.50178
G1 X105.282 Y131.813 E.41527
G1 X105.282 Y120.41 E.50178
G1 X97.644 Y120.41 E.33608
G1 X97.644 Y131.813 E.50178
G1 X85.362 Y131.813 E.54049
G1 X85.362 Y120.41 E.50178
G1 X77.725 Y120.41 E.33608
G1 X77.725 Y131.813 E.50178
G1 X65.442 Y131.813 E.54049
G1 X65.442 Y120.41 E.50178
G1 X55.875 Y120.41 E.42101
G1 X55.875 Y110.973 E.41527
G1 X65.442 Y110.973 E.42101
G1 X65.442 Y103.336 E.33608
G1 X55.875 Y103.336 E.42101
G1 X55.875 Y91.053 E.54049
G1 X65.442 Y91.053 E.42101
G1 X65.442 Y83.416 E.33608
G1 X55.875 Y83.416 E.42101
G1 X55.875 Y61.663 E.95727
G1 X60.651 Y61.663 E.21016
G1 X60.651 Y71.05 E.4131
G1 E-1 F2400
;WIPE_START
G1 F1800
G1 X60.651 Y69.05
;WIPE_END
G1 X63.786 Y71.226 Z.4 F4500
G1 X134.638 Y120.41 Z.4
G1 Z.2
G1 E1 F1800
G1 X142.275 Y120.41 E.33608
G1 X142.275 Y128.047 E.33608
G1 X134.638 Y128.047 E.33608
G1 X134.638 Y120.493 E.3324
G1 X134.638 Y103.336 F4500
G1 F1800
G1 X142.275 Y103.336 E.33608
G1 X142.275 Y110.973 E.33608
G1 X134.638 Y110.973 E.33608
G1 X134.638 Y103.419 E.3324
G1 X97.644 Y103.336 F4500
G1 F1800
G1 X105.282 Y103.336 E.33608
G1 X105.282 Y110.973 E.33608
G1 X97.644 Y110.973 E.33608
G1 X97.644 Y103.419 E.3324
G1 X77.725 Y103.336 F4500
G1 F1800
G1 X85.362 Y103.336 E.33608
G1 X85.362 Y110.973 E.33608
G1 X77.725 Y110.973 E.33608
G1 X77.725 Y103.419 E.3324
G1 X114.718 Y103.336 F4500
G1 F1800
G1 X122.356 Y103.336 E.33608
G1 X122.356 Y110.973 E.33608
G1 X114.718 Y110.973 E.33608
G1 X114.718 Y103.419 E.3324
G1 X134.638 Y83.416 F4500
G1 F1800
G1 X142.275 Y83.416 E.33608
G1 X142.275 Y91.053 E.33608
G1 X134.638 Y91.053 E.33608
G1 X134.638 Y83.5 E.3324
G1 X114.718 Y83.416 F4500
G1 F1800
G1 X122.356 Y83.416 E.33608
G1 X122.356 Y91.053 E.33608
G1 X114.718 Y91.053 E.33608
G1 X114.718 Y83.5 E.3324
G1 X97.644 Y83.416 F4500
G1 F1800
G1 X105.282 Y83.416 E.33608
G1 X105.282 Y91.053 E.33608
G1 X97.644 Y91.053 E.33608
G1 X97.644 Y83.5 E.3324
G1 X77.725 Y83.416 F4500
G1 F1800
G1 X85.362 Y83.416 E.33608
G1 X85.362 Y91.053 E.33608
G1 X77.725 Y91.053 E.33608
G1 X77.725 Y83.5 E.3324
G1 E-1 F2400
;WIPE_START
G1 F1800
G1 X77.725 Y85.5
;WIPE_END
G1 X81.085 Y87.31 Z.4 F4500
G1 X163.232 Y131.562 Z.4
G1 Z.2
G1 E1 F1800
G1 X163.232 Y128.548 E.13261
G1 X162.613 Y128.548 E.02724
G1 X162.613 Y131.311 E.12158
G1 X161.994 Y131.311 E.02724
G1 X161.994 Y128.548 E.12158
G1 X161.375 Y128.548 E.02724
G1 X161.375 Y131.311 E.12158
G1 X160.756 Y131.311 E.02724
G1 X160.756 Y128.548 E.12158
G1 X160.137 Y128.548 E.02724
G1 X160.137 Y131.311 E.12158
G1 X159.518 Y131.311 E.02724
G1 X159.518 Y128.548 E.12158
G1 X158.899 Y128.548 E.02724
G1 X158.899 Y131.311 E.12158
G1 X158.28 Y131.311 E.02724
G1 X158.28 Y128.548 E.12158
G1 X157.661 Y128.548 E.02724
G1 X157.661 Y131.311 E.12158
G1 X157.042 Y131.311 E.02724
G1 X157.042 Y128.548 E.12158
G1 X156.423 Y128.548 E.02724
G1 X156.423 Y131.311 E.12158
G1 X155.804 Y131.311 E.02724
G1 X155.804 Y128.548 E.12158
G1 X155.185 Y128.548 E.02724
G1 X155.185 Y131.311 E.12158
G1 X154.566 Y131.311 E.02724
G1 X154.566 Y128.548 E.12158
G1 X154.056 Y128.548 E.02244
G1 X154.056 Y119.908 E.3802
G1 X154.566 Y119.908 E.02244
G1 X154.566 Y111.474 E.37114
G1 X155.185 Y111.474 E.02724
G1 X155.185 Y119.908 E.37114
G1 X155.804 Y119.908 E.02724
G1 X155.804 Y111.474 E.37114
G1 X156.423 Y111.474 E.02724
G1 X156.423 Y119.908 E.37114
G1 X157.042 Y119.908 E.02724
G1 X157.042 Y111.474 E.37114
G1 X157.661 Y111.474 E.02724
G1 X157.661 Y119.908 E.37114
G1 X158.28 Y119.908 E.02724
G1 X158.28 Y111.474 E.37114
G1 X158.899 Y111.474 E.02724
G1 X158.899 Y119.908 E.37114
G1 X159.518 Y119.908 E.02724
G1 X159.518 Y111.474 E.37114
G1 X160.137 Y111.474 E.02724
G1 X160.137 Y119.908 E.37114
G1 X160.756 Y119.908 E.02724
G1 X160.756 Y111.474 E.37114
G1 X161.375 Y111.474 E.02724
G1 X161.375 Y119.908 E.37114
G1 X161.994 Y119.908 E.02724
G1 X161.994 Y111.474 E.37114
G1 X162.613 Y111.474 E.02724
G1 X162.613 Y119.908 E.37114
G1 X163.232 Y119.908 E.02724
G1 X163.232 Y111.224 E.38217
G1 E-1 F2400
;WIPE_START
G1 F1800
G1 X163.232 Y113.224
;WIPE_END
G1 X163.232 Y109.407 Z.4 F4500
G1 X163.232 Y103.085 Z.4
G1 Z.2
G1 E1 F1800
G1 X163.232 Y91.555 E.5074
G1 X162.613 Y91.555 E.02724
G1 X162.613 Y102.834 E.49637
G1 X161.994 Y102.834 E.02724
G1 X161.994 Y91.555 E.49637
G1 X161.375 Y91.555 E.02724
G1 X161.375 Y102.834 E.49637
G1 X160.756 Y102.834 E.02724
G1 X160.756 Y91.555 E.49637
G1 X160.137 Y91.555 E.02724
G1 X160.137 Y102.834 E.49637
G1 X159.518 Y102.834 E.02724
G1 X159.518 Y91.555 E.49637
G1 X158.899 Y91.555 E.02724
G1 X158.899 Y102.834 E.49637
G1 X158.28 Y102.834 E.02724
G1 X158.28 Y91.555 E.49637
G1 X157.661 Y91.555 E.02724
G1 X157.661 Y102.834 E.49637
G1 X157.042 Y102.834 E.02724
G1 X157.042 Y91.555 E.49637
G1 X156.423 Y91.555 E.02724
G1 X156.423 Y102.834 E.49637
G1 X155.804 Y102.834 E.02724
G1 X155.804 Y91.555 E.49637
G1 X155.185 Y91.555 E.02724
G1 X155.185 Y102.834 E.49637
G1 X154.566 Y102.834 E.02724
G1 X154.566 Y91.555 E.49637
G1 X154.056 Y91.555 E.02244
G1 X154.056 Y82.915 E.3802
G1 X154.566 Y82.915 E.02244
G1 X154.566 Y62.164 E.91315
G1 X155.185 Y62.164 E.02724
G1 X155.185 Y82.915 E.91315
G1 X155.804 Y82.915 E.02724
G1 X155.804 Y62.164 E.91315
G1 X156.423 Y62.164 E.02724
G1 X156.423 Y82.915 E.91315
G1 X157.042 Y82.915 E.02724
G1 X157.042 Y62.164 E.91315
G1 X157.661 Y62.164 E.02724
G1 X157.661 Y82.915 E.91315
G1 X158.28 Y82.915 E.02724
G1 X158.28 Y62.164 E.91315
G1 X158.899 Y62.164 E.02724
G1 X158.899 Y82.915 E.91315
G1 X159.518 Y82.915 E.02724
G1 X159.518 Y62.164 E.91315
G1 X160.137 Y62.164 E.02724
G1 X160.137 Y82.915 E.91315
G1 X160.756 Y82.915 E.02724
M73 P1 R122
G1 X160.756 Y62.164 E.91315
G1 X161.375 Y62.164 E.02724
G1 X161.375 Y82.915 E.91315
G1 X161.994 Y82.915 E.02724
G1 X161.994 Y62.164 E.91315
G1 X162.613 Y62.164 E.02724
G1 X162.613 Y82.915 E.91315
G1 X163.232 Y82.915 E.02724
G1 X163.232 Y61.913 E.92418
G1 E-1 F2400
;WIPE_START
G1 F1800
G1 X163.232 Y63.913
;WIPE_END
G1 X162.713 Y67.694 Z.4 F4500
G1 X153.947 Y131.562 Z.4
G1 Z.2
G1 E1 F1800
G1 X153.947 Y62.164 E3.05388
G1 X153.328 Y62.164 E.02724
G1 X153.328 Y131.311 E3.04285
G1 X152.709 Y131.311 E.02724
G1 X152.709 Y62.164 E3.04285
G1 X152.09 Y62.164 E.02724
G1 X152.09 Y131.311 E3.04285
G1 X151.471 Y131.311 E.02724
G1 X151.471 Y62.164 E3.04285
G1 X151.314 Y62.164 E.00695
G1 X151.314 Y71.635 E.41678
G1 X150.852 Y71.635 E.02029
G1 X150.852 Y131.311 E2.62606
G1 X150.234 Y131.311 E.02724
G1 X150.234 Y71.635 E2.62606
G1 X149.615 Y71.635 E.02724
G1 X149.615 Y131.311 E2.62606
G1 X148.996 Y131.311 E.02724
G1 X148.996 Y71.635 E2.62606
G1 X148.377 Y71.635 E.02724
G1 X148.377 Y131.311 E2.62606
G1 X147.758 Y131.311 E.02724
G1 X147.758 Y71.635 E2.62606
G1 X147.139 Y71.635 E.02724
G1 X147.139 Y131.311 E2.62606
G1 X146.52 Y131.311 E.02724
G1 X146.52 Y71.635 E2.62606
G1 X145.901 Y71.635 E.02724
G1 X145.901 Y131.311 E2.62606
G1 X145.282 Y131.311 E.02724
G1 X145.282 Y71.635 E2.62606
G1 X144.663 Y71.635 E.02724
G1 X144.663 Y131.311 E2.62606
G1 X144.044 Y131.311 E.02724
G1 X144.044 Y71.635 E2.62606
G1 X143.425 Y71.635 E.02724
G1 X143.425 Y131.311 E2.62606
G1 X142.806 Y131.311 E.02724
G1 X142.806 Y71.635 E2.62606
G1 X142.674 Y71.635 E.00581
G1 X142.674 Y62.164 E.41678
G1 X142.187 Y62.164 E.02142
G1 X142.187 Y82.915 E.91315
G1 X141.568 Y82.915 E.02724
G1 X141.568 Y62.164 E.91315
G1 X140.949 Y62.164 E.02724
G1 X140.949 Y82.915 E.91315
G1 X140.33 Y82.915 E.02724
G1 X140.33 Y62.164 E.91315
G1 X139.711 Y62.164 E.02724
G1 X139.711 Y82.915 E.91315
G1 X139.092 Y82.915 E.02724
G1 X139.092 Y62.164 E.91315
G1 X138.473 Y62.164 E.02724
G1 X138.473 Y82.915 E.91315
G1 X137.854 Y82.915 E.02724
G1 X137.854 Y62.164 E.91315
G1 X137.235 Y62.164 E.02724
G1 X137.235 Y82.915 E.91315
G1 X136.616 Y82.915 E.02724
G1 X136.616 Y62.164 E.91315
G1 X135.997 Y62.164 E.02724
G1 X135.997 Y82.915 E.91315
G1 X135.378 Y82.915 E.02724
G1 X135.378 Y62.164 E.91315
G1 X134.759 Y62.164 E.02724
G1 X134.759 Y83.165 E.92418
G1 E-1 F2400
;WIPE_START
G1 F1800
G1 X134.759 Y81.165
;WIPE_END
G1 X135.316 Y84.941 Z.4 F4500
G1 X142.187 Y131.562 Z.4
G1 Z.2
G1 E1 F1800
G1 X142.187 Y128.548 E.13261
G1 X141.568 Y128.548 E.02724
G1 X141.568 Y131.311 E.12158
G1 X140.949 Y131.311 E.02724
G1 X140.949 Y128.548 E.12158
G1 X140.33 Y128.548 E.02724
G1 X140.33 Y131.311 E.12158
G1 X139.711 Y131.311 E.02724
G1 X139.711 Y128.548 E.12158
G1 X139.092 Y128.548 E.02724
G1 X139.092 Y131.311 E.12158
G1 X138.473 Y131.311 E.02724
G1 X138.473 Y128.548 E.12158
G1 X137.854 Y128.548 E.02724
G1 X137.854 Y131.311 E.12158
G1 X137.235 Y131.311 E.02724
G1 X137.235 Y128.548 E.12158
G1 X136.616 Y128.548 E.02724
M73 P1 R121
G1 X136.616 Y131.311 E.12158
G1 X135.997 Y131.311 E.02724
G1 X135.997 Y128.548 E.12158
G1 X135.378 Y128.548 E.02724
G1 X135.378 Y131.311 E.12158
G1 X134.759 Y131.311 E.02724
G1 X134.759 Y128.298 E.13261
G1 E-1 F2400
;WIPE_START
G1 F1800
G1 X134.759 Y130.298
;WIPE_END
G1 X137.014 Y127.219 Z.4 F4500
G1 X142.187 Y120.159 Z.4
G1 Z.2
G1 E1 F1800
G1 X142.187 Y111.474 E.38217
G1 X141.568 Y111.474 E.02724
G1 X141.568 Y119.908 E.37114
G1 X140.949 Y119.908 E.02724
G1 X140.949 Y111.474 E.37114
G1 X140.33 Y111.474 E.02724
G1 X140.33 Y119.908 E.37114
G1 X139.711 Y119.908 E.02724
G1 X139.711 Y111.474 E.37114
G1 X139.092 Y111.474 E.02724
G1 X139.092 Y119.908 E.37114
G1 X138.473 Y119.908 E.02724
G1 X138.473 Y111.474 E.37114
G1 X137.854 Y111.474 E.02724
G1 X137.854 Y119.908 E.37114
G1 X137.235 Y119.908 E.02724
G1 X137.235 Y111.474 E.37114
G1 X136.616 Y111.474 E.02724
G1 X136.616 Y119.908 E.37114
G1 X135.997 Y119.908 E.02724
G1 X135.997 Y111.474 E.37114
G1 X135.378 Y111.474 E.02724
G1 X135.378 Y119.908 E.37114
G1 X134.759 Y119.908 E.02724
G1 X134.759 Y111.224 E.38217
G1 E-1 F2400
;WIPE_START
G1 F1800
G1 X134.759 Y113.224
;WIPE_END
G1 X137.014 Y110.145 Z.4 F4500
G1 X142.187 Y103.085 Z.4
G1 Z.2
G1 E1 F1800
G1 X142.187 Y91.555 E.5074
G1 X141.568 Y91.555 E.02724
G1 X141.568 Y102.834 E.49637
G1 X140.949 Y102.834 E.02724
G1 X140.949 Y91.555 E.49637
G1 X140.33 Y91.555 E.02724
G1 X140.33 Y102.834 E.49637
G1 X139.711 Y102.834 E.02724
G1 X139.711 Y91.555 E.49637
G1 X139.092 Y91.555 E.02724
G1 X139.092 Y102.834 E.49637
G1 X138.473 Y102.834 E.02724
G1 X138.473 Y91.555 E.49637
G1 X137.854 Y91.555 E.02724
G1 X137.854 Y102.834 E.49637
G1 X137.235 Y102.834 E.02724
G1 X137.235 Y91.555 E.49637
G1 X136.616 Y91.555 E.02724
G1 X136.616 Y102.834 E.49637
G1 X135.997 Y102.834 E.02724
G1 X135.997 Y91.555 E.49637
G1 X135.378 Y91.555 E.02724
G1 X135.378 Y102.834 E.49637
G1 X134.759 Y102.834 E.02724
G1 X134.759 Y91.304 E.5074
G1 X134.14 Y131.562 F4500
G1 F1800
G1 X134.14 Y62.164 E3.05388
G1 X133.521 Y62.164 E.02724
M73 P2 R121
G1 X133.521 Y131.311 E3.04285
G1 X132.902 Y131.311 E.02724
G1 X132.902 Y62.164 E3.04285
G1 X132.283 Y62.164 E.02724
G1 X132.283 Y131.311 E3.04285
G1 X131.664 Y131.311 E.02724
G1 X131.664 Y62.164 E3.04285
G1 X131.045 Y62.164 E.02724
G1 X131.045 Y131.311 E3.04285
G1 X130.426 Y131.311 E.02724
G1 X130.426 Y62.164 E3.04285
G1 X129.807 Y62.164 E.02724
G1 X129.807 Y131.311 E3.04285
G1 X129.188 Y131.311 E.02724
G1 X129.188 Y62.164 E3.04285
G1 X128.569 Y62.164 E.02724
G1 X128.569 Y131.311 E3.04285
G1 X127.95 Y131.311 E.02724
G1 X127.95 Y62.164 E3.04285
G1 X127.331 Y62.164 E.02724
G1 X127.331 Y131.311 E3.04285
G1 X126.712 Y131.311 E.02724
G1 X126.712 Y62.164 E3.04285
G1 X126.093 Y62.164 E.02724
G1 X126.093 Y131.311 E3.04285
G1 X125.474 Y131.311 E.02724
G1 X125.474 Y62.164 E3.04285
G1 X124.855 Y62.164 E.02724
G1 X124.855 Y131.311 E3.04285
G1 X124.236 Y131.311 E.02724
G1 X124.236 Y62.164 E3.04285
G1 X123.617 Y62.164 E.02724
G1 X123.617 Y131.311 E3.04285
G1 X122.999 Y131.311 E.02724
G1 X122.999 Y62.164 E3.04285
G1 X122.38 Y62.164 E.02724
G1 X122.38 Y82.915 E.91315
G1 X121.761 Y82.915 E.02724
G1 X121.761 Y62.164 E.91315
G1 X121.142 Y62.164 E.02724
G1 X121.142 Y82.915 E.91315
M73 P2 R120
G1 X120.523 Y82.915 E.02724
G1 X120.523 Y62.164 E.91315
G1 X119.904 Y62.164 E.02724
G1 X119.904 Y82.915 E.91315
G1 X119.285 Y82.915 E.02724
G1 X119.285 Y62.164 E.91315
G1 X118.666 Y62.164 E.02724
G1 X118.666 Y82.915 E.91315
G1 X118.047 Y82.915 E.02724
G1 X118.047 Y62.164 E.91315
G1 X117.428 Y62.164 E.02724
G1 X117.428 Y82.915 E.91315
G1 X116.809 Y82.915 E.02724
G1 X116.809 Y71.635 E.49637
G1 X116.19 Y71.635 E.02724
G1 X116.19 Y82.915 E.49637
G1 X115.571 Y82.915 E.02724
G1 X115.571 Y71.635 E.49637
G1 X114.952 Y71.635 E.02724
G1 X114.952 Y83.165 E.5074
G1 E-1 F2400
;WIPE_START
G1 F1800
G1 X114.952 Y81.165
;WIPE_END
G1 X115.666 Y84.914 Z.4 F4500
G1 X122.38 Y120.159 Z.4
G1 Z.2
G1 E1 F1800
G1 X122.38 Y111.474 E.38217
G1 X121.761 Y111.474 E.02724
G1 X121.761 Y119.908 E.37114
G1 X121.142 Y119.908 E.02724
G1 X121.142 Y111.474 E.37114
G1 X120.523 Y111.474 E.02724
G1 X120.523 Y119.908 E.37114
G1 X119.904 Y119.908 E.02724
G1 X119.904 Y111.474 E.37114
G1 X119.285 Y111.474 E.02724
G1 X119.285 Y119.908 E.37114
G1 X118.666 Y119.908 E.02724
G1 X118.666 Y111.474 E.37114
G1 X118.047 Y111.474 E.02724
G1 X118.047 Y119.908 E.37114
G1 X117.428 Y119.908 E.02724
G1 X117.428 Y111.474 E.37114
G1 X116.809 Y111.474 E.02724
G1 X116.809 Y119.908 E.37114
G1 X116.19 Y119.908 E.02724
G1 X116.19 Y111.474 E.37114
G1 X115.571 Y111.474 E.02724
G1 X115.571 Y119.908 E.37114
