;TIME:6077.82
;Filament used:7.56087m
;Layer height:0.200
; HEADER_BLOCK_START
; generated by Creality_Print V6.2.2.3203 on 2025-10-16 at 14:15:43
; total layer number: 58
; filament_density: 1.25
; filament_diameter: 1.75
; max_z_height: 9.32
; creality_uuid: cfc486f4-4e0e-4e01-9c56-dd70a4ad800b
; HEADER_BLOCK_END

; MINX = 52.85
; MINY = 59.90
; MINZ = 0.00
; MAXX = 167.15
; MAXY = 160.10
; MAXZ = 9.30

; THUMBNAIL_BLOCK_START

;
; THUMBNAIL_BLOCK_END

; THUMBNAIL_BLOCK_START

;
; THUMBNAIL_BLOCK_END

; external perimeters extrusion width = 0.42mm
; perimeters extrusion width = 0.45mm
; infill extrusion width = 0.45mm
; solid infill extrusion width = 0.42mm
; top infill extrusion width = 0.42mm
; support material extrusion width = 0.38mm
; first layer extrusion width = 0.60mm

; EXECUTABLE_BLOCK_START
M73 P0 R101
M201 X5000 Y5000 Z500 E5000
M203 X500 Y500 Z30 E100
M204 P5000 R2500 T5000 ; sets acceleration (P, T) and retract acceleration (R), mm/sec^2
M205 X10.00 Y10.00 Z0.40 E5.00 ; sets the jerk limits, mm/sec
;TYPE:Custom
M220 S100 ;Reset Feedrate 
M221 S100 ;Reset Flowrate 
 
M140 S60 ;Set final bed temp 
G28 ;Home 
 
G92 E0 ;Reset Extruder 
G1 Z2.0 F3000 ;Move Z Axis up 
M104 S200 ;Set final nozzle temp 
G1 X-2.1 Y20 Z0.28 F5000.0 ;Move to start position 
M190 S60 ;Wait for bed temp to stabilize 
M109 S200 ;Wait for nozzle temp to stabilize 
G1 X-2.1 Y145.0 Z0.28 F1500.0 E15 ;Draw the first line 
G1 X-2.4 Y145.0 Z0.28 F5000.0 ;Move to side a little 
G1 X-2.4 Y20 Z0.28 F1500.0 E30 ;Draw the second line 
G92 E0  ;Reset Extruder 
G1 E-1.0000 F1800 ;Retract a bit 
G1 Z2.0 F3000 ;Move Z Axis up 
G1 E0.0000 F1800
G90
G21
M83 ; use relative distances for extrusion
;filament start gcode
G1 E-1 F2400
G1 Z.2 F4500
M106 S0
;LAYER_CHANGE
;Z:0.2
;HEIGHT:0.2
;BEFORE_LAYER_CHANGE
;0.2
G92 E0

;_SET_FAN_SPEED_CHANGING_LAYER
M204 P500
M205 X8 Y8
; printing object right_part.stl id:7883381218931470447 copy 0
M204 T500
G1 X54.454 Y137.021 Z.4 F4500
G1 Z.2
G1 E1 F1800
;TYPE:Inner wall
;WIDTH:0.726881
G1 X54.454 Y140.739 E.20089
G1 X54.531 Y140.858 E.00768
;WIDTH:0.684587
G1 X54.608 Y140.978 E.00721
;WIDTH:0.642293
G1 X54.685 Y141.098 E.00673
;WIDTH:0.599999
G1 X55.032 Y141.368 E.01935
G1 X55.354 Y141.432 E.01442
G1 X70.001 Y141.432 E.64457
;WIDTH:0.642292
G1 X70.277 Y141.453 E.0131
;WIDTH:0.684585
G1 X70.553 Y141.474 E.01402
;WIDTH:0.726878
G1 X70.829 Y141.496 E.01494
G1 X164.79 Y141.496 E5.07651
G1 X164.939 Y141.393 E.00979
;WIDTH:0.684585
G1 X165.088 Y141.29 E.00918
;WIDTH:0.642292
G1 X165.237 Y141.187 E.00858
;WIDTH:0.645427
G1 X165.337 Y141.042 E.00837
;WIDTH:0.690855
G1 X165.437 Y140.898 E.009
;WIDTH:0.736283
G1 X165.537 Y140.753 E.00964
G1 X165.546 Y140.596 E.00857
;WIDTH:0.72688
G1 X165.546 Y62.404 E4.2246
G1 X165.443 Y62.207 E.012
;WIDTH:0.684587
M73 P0 R100
G1 X165.34 Y62.01 E.01126
;WIDTH:0.642294
G1 X165.237 Y61.813 E.01052
G1 X165.04 Y61.71 E.01052
;WIDTH:0.684589
G1 X164.843 Y61.607 E.01126
;WIDTH:0.726883
G1 X164.646 Y61.504 E.012
G1 X55.21 Y61.504 E5.91264
G1 X55.061 Y61.607 E.00979
;WIDTH:0.684589
G1 X54.912 Y61.71 E.00918
;WIDTH:0.642293
G1 X54.763 Y61.813 E.00858
G1 X54.66 Y62.01 E.01052
;WIDTH:0.684587
G1 X54.557 Y62.207 E.01126
;WIDTH:0.726881
G1 X54.454 Y62.404 E.012
G1 X54.454 Y62.767 E.01964
G1 X53.771 Y62.767 E.03695
G1 X53.749 Y62.061 E.03817
;WIDTH:0.684587
G1 X53.728 Y61.718 E.0174
;WIDTH:0.642293
G1 X53.707 Y61.375 E.01626
;WIDTH:0.599999
G1 X53.707 Y60.757 E.02721
G1 X54.325 Y60.757 E.02721
;WIDTH:0.642294
G1 X54.668 Y60.778 E.01626
;WIDTH:0.684589
G1 X55.011 Y60.799 E.0174
;WIDTH:0.726883
G1 X55.354 Y60.821 E.01855
G1 X164.646 Y60.821 E5.9049
G1 X164.989 Y60.799 E.01855
;WIDTH:0.684589
G1 X165.332 Y60.778 E.0174
;WIDTH:0.642294
G1 X165.675 Y60.757 E.01626
;WIDTH:0.599999
G1 X166.293 Y60.757 E.02721
G1 X166.293 Y61.375 E.02721
;WIDTH:0.642293
G1 X166.272 Y61.718 E.01626
;WIDTH:0.684587
G1 X166.251 Y62.061 E.0174
;WIDTH:0.72688
G1 X166.229 Y62.404 E.01855
G1 X166.229 Y140.869 E4.2393
G1 X166.251 Y141.121 E.01366
;WIDTH:0.684587
G1 X166.272 Y141.373 E.01282
;WIDTH:0.642293
G1 X166.293 Y141.625 E.01197
;WIDTH:0.599999
G1 X166.293 Y142.243 E.02721
G1 X165.675 Y142.243 E.02721
;WIDTH:0.642292
G1 X165.332 Y142.222 E.01626
;WIDTH:0.684585
G1 X164.989 Y142.201 E.0174
;WIDTH:0.726877
G1 X164.646 Y142.179 E.01855
G1 X70.686 Y142.179 E5.07645
G1 X70.567 Y142.256 E.00768
;WIDTH:0.684585
G1 X70.447 Y142.333 E.00721
;WIDTH:0.642292
G1 X70.327 Y142.41 E.00673
;WIDTH:0.599999
G1 X70.057 Y142.757 E.01935
G1 X69.993 Y143.079 E.01442
G1 X69.993 Y159.243 E.71132
G1 X53.707 Y159.243 E.71666
G1 X53.707 Y141.424 E.78413
;WIDTH:0.642293
G1 X53.728 Y141.148 E.0131
;WIDTH:0.684587
G1 X53.749 Y140.872 E.01402
;WIDTH:0.726881
G1 X53.771 Y140.596 E.01494
G1 X53.771 Y137.021 E.1932
G1 X54.414 Y137.021 E.03479
G1 E-1 F2400
;WIPE_START
G1 F1800
G1 X54.436 Y139.02
;WIPE_END
G1 X55.156 Y136.156 Z.4 F4500
G1 Z.2
G1 E1 F1800
;TYPE:Outer wall
;WIDTH:0.478473
G1 X55.136 Y136.245 E.00316
;WIDTH:0.518982
G1 X55.116 Y136.335 E.00345
;WIDTH:0.559491
G1 X55.095 Y136.424 E.00374
;WIDTH:0.599999
G1 X55.075 Y136.514 E.00404
G1 X55.075 Y140.596 E.17967
G1 X55.131 Y140.764 E.00775
G1 X55.246 Y140.854 E.00645
G1 X55.354 Y140.875 E.00481
G1 X164.646 Y140.875 E4.80946
G1 X164.843 Y140.793 E.00938
G1 X164.925 Y140.596 E.00938
G1 X164.925 Y62.404 E3.4409
G1 X164.843 Y62.207 E.00938
G1 X164.646 Y62.125 E.00938
G1 X55.354 Y62.125 E4.80946
G1 X55.157 Y62.207 E.00938
G1 X55.075 Y62.404 E.00938
G1 X55.075 Y63.274 E.0383
G1 X55.096 Y63.372 E.00441
;WIDTH:0.558749
G1 X55.116 Y63.47 E.00408
;WIDTH:0.517498
G1 X55.137 Y63.568 E.00376
;WIDTH:0.476247
G1 X55.158 Y63.666 E.00343
G1 X55.108 Y63.596 E.00291
;WIDTH:0.517498
G1 X55.059 Y63.527 E.00319
;WIDTH:0.558749
G1 X55.01 Y63.457 E.00347
;WIDTH:0.599999
G1 X54.961 Y63.388 E.00375
G1 X53.15 Y63.388 E.07971
G1 X53.15 Y60.2 E.14027
G1 X166.85 Y60.2 E5.0034
G1 X166.85 Y142.8 E3.63483
G1 X70.829 Y142.8 E4.22545
G1 X70.661 Y142.856 E.00775
G1 X70.571 Y142.971 E.00645
G1 X70.55 Y143.079 E.00481
G1 X70.55 Y159.8 E.73583
G1 X53.15 Y159.8 E.76569
G1 X53.15 Y136.4 E1.02972
G1 X54.961 Y136.4 E.07971
G1 X55.01 Y136.339 E.00344
;WIDTH:0.559491
G1 X55.059 Y136.278 E.00319
;WIDTH:0.518982
G1 X55.107 Y136.217 E.00294
;WIDTH:0.478473
G1 X55.131 Y136.187 E.00131
G1 X55.156 Y136.156 F4500
;WIDTH:0.437964
G1 F1800
G1 X55.158 Y136.121 E.00107
;WIDTH:0.434996
G1 X55.158 Y107.079 E.89949
G1 E-1 F2400
;WIPE_START
G1 F1800
G1 X55.158 Y109.079
;WIPE_END
G1 X54.984 Y105.266 Z.4 F4500
G1 X54.454 Y93.608 Z.4
G1 Z.2
G1 E1 F1800
;TYPE:Inner wall
;WIDTH:0.726881
G1 X54.454 Y106.179 E.67921
G1 X53.771 Y106.179 E.03695
G1 X53.771 Y93.608 E.67921
G1 X54.414 Y93.608 E.03479
G1 E-1 F2400
;WIPE_START
G1 F1800
G1 X54.421 Y95.608
;WIPE_END
G1 X55.156 Y92.743 Z.4 F4500
G1 Z.2
M73 P1 R100
G1 E1 F1800
;TYPE:Outer wall
;WIDTH:0.437964
G1 X55.158 Y92.709 E.00107
;WIDTH:0.434996
G1 X55.158 Y63.666 E.89949
G1 E-1 F2400
;WIPE_START
G1 F1800
G1 X55.158 Y65.666
;WIPE_END
G1 X55.157 Y69.482 Z.4 F4500
G1 X55.156 Y92.743 Z.4
G1 Z.2
G1 E1 F1800
;WIDTH:0.478473
G1 X55.136 Y92.833 E.00316
;WIDTH:0.518982
G1 X55.116 Y92.922 E.00345
;WIDTH:0.559491
G1 X55.095 Y93.012 E.00374
;WIDTH:0.599999
G1 X55.075 Y93.101 E.00404
G1 X55.075 Y106.686 E.59783
G1 X55.096 Y106.784 E.00441
;WIDTH:0.558749
G1 X55.116 Y106.883 E.00408
;WIDTH:0.517498
G1 X55.137 Y106.981 E.00376
;WIDTH:0.476247
G1 X55.158 Y107.079 E.00343
G1 X55.108 Y107.009 E.00291
;WIDTH:0.517498
G1 X55.059 Y106.939 E.00319
;WIDTH:0.558749
G1 X55.01 Y106.87 E.00347
;WIDTH:0.599999
G1 X54.961 Y106.8 E.00375
G1 X53.15 Y106.8 E.07971
G1 X53.15 Y92.987 E.60782
G1 X54.961 Y92.987 E.07971
G1 X55.01 Y92.926 E.00344
;WIDTH:0.559491
G1 X55.059 Y92.865 E.00319
;WIDTH:0.518982
G1 X55.107 Y92.804 E.00294
;WIDTH:0.478473
G1 X55.131 Y92.774 E.00131
G1 E-1 F2400
;WIPE_START
G1 F1800
G1 X55.136 Y92.833
G1 X55.116 Y92.922
G1 X55.095 Y93.012
G1 X55.075 Y93.101
G1 X55.075 Y94.767
;WIPE_END
G1 X54.725 Y61.633 Z.4 F4500
G1 Z.4
G1 Z.2
G1 E1 F1800
;TYPE:Bottom surface
;WIDTH:0.653348
G1 X54.016 Y60.924 E.04835
G1 E-1 F2400
;WIPE_START
G1 F1800
G1 X54.725 Y61.633
;WIPE_END
G1 X55.421 Y65.385 Z.4 F4500
G1 X69.559 Y141.599 Z.4
G1 Z.2
G1 E1 F1800
;WIDTH:0.608904
G1 X70.055 Y142.095 E.03135
G1 X69.705 Y142.545 E.0255
G1 X69.01 Y141.85 E.04397
G1 X68.209 Y141.85 E.03579
G1 X69.575 Y143.216 E.08636
G1 X69.575 Y144.016 E.03579
G1 X67.409 Y141.85 E.13697
G1 X66.608 Y141.85 E.03579
G1 X69.575 Y144.817 E.18758
G1 X69.575 Y145.617 E.03579
G1 X65.808 Y141.85 E.23819
G1 X65.008 Y141.85 E.03579
G1 X69.575 Y146.417 E.2888
G1 X69.575 Y147.218 E.03579
G1 X64.207 Y141.85 E.33941
G1 X63.407 Y141.85 E.03579
G1 X69.575 Y148.018 E.39002
G1 X69.575 Y148.819 E.03579
G1 X62.606 Y141.85 E.44062
G1 X61.806 Y141.85 E.03579
G1 X69.575 Y149.619 E.49123
G1 X69.575 Y150.42 E.03579
G1 X61.005 Y141.85 E.54184
G1 X60.205 Y141.85 E.03579
G1 X69.575 Y151.22 E.59245
G1 X69.575 Y152.02 E.03579
G1 X59.405 Y141.85 E.64306
G1 X58.604 Y141.85 E.03579
G1 X69.575 Y152.821 E.69367
G1 X69.575 Y153.621 E.03579
G1 X57.804 Y141.85 E.74428
G1 X57.003 Y141.85 E.03579
G1 X69.575 Y154.422 E.79489
G1 X69.575 Y155.222 E.03579
G1 X56.203 Y141.85 E.84549
G1 X55.402 Y141.85 E.03579
G1 X69.575 Y156.023 E.8961
G1 X69.575 Y156.823 E.03579
G1 X54.137 Y141.385 E.97612
G1 X54.125 Y142.173 E.03525
G1 X69.575 Y157.623 E.97688
G1 X69.575 Y158.424 E.03579
G1 X54.125 Y142.974 E.97688
G1 X54.125 Y143.774 E.03579
G1 X69.176 Y158.825 E.95165
G1 X68.376 Y158.825 E.03579
G1 X54.125 Y144.574 E.90104
G1 X54.125 Y145.375 E.03579
G1 X67.575 Y158.825 E.85043
G1 X66.775 Y158.825 E.03579
M73 P1 R99
G1 X54.125 Y146.175 E.79982
G1 X54.125 Y146.976 E.03579
G1 X65.974 Y158.825 E.74921
G1 X65.174 Y158.825 E.03579
G1 X54.125 Y147.776 E.6986
G1 X54.125 Y148.577 E.03579
G1 X64.373 Y158.825 E.64799
G1 X63.573 Y158.825 E.03579
G1 X54.125 Y149.377 E.59739
G1 X54.125 Y150.177 E.03579
G1 X62.773 Y158.825 E.54678
G1 X61.972 Y158.825 E.03579
G1 X54.125 Y150.978 E.49617
G1 X54.125 Y151.778 E.03579
G1 X61.172 Y158.825 E.44556
G1 X60.371 Y158.825 E.03579
G1 X54.125 Y152.579 E.39495
G1 X54.125 Y153.379 E.03579
G1 X59.571 Y158.825 E.34434
G1 X58.771 Y158.825 E.03579
G1 X54.125 Y154.179 E.29373
G1 X54.125 Y154.98 E.03579
G1 X57.97 Y158.825 E.24312
G1 X57.17 Y158.825 E.03579
G1 X54.125 Y155.78 E.19252
G1 X54.125 Y156.581 E.03579
G1 X56.369 Y158.825 E.14191
G1 X55.569 Y158.825 E.03579
G1 X54.125 Y157.381 E.0913
G1 X54.125 Y158.182 E.03579
G1 X55.019 Y159.076 E.05654
G1 E-1 F2400
;WIPE_START
G1 F1800
G1 X54.125 Y158.182
G1 X54.125 Y157.446
;WIPE_END
G1 X54.365 Y153.638 Z.4 F4500
G1 X55.11 Y141.816 Z.4
G1 Z.2
G1 E1 F1800
;TYPE:Gap infill
;WIDTH:0.15179
G1 X54.893 Y141.666 E.00227
G1 X54.638 Y141.442 E.00292
G1 E-1 F2400
;WIPE_START
G1 F1800
G1 X54.893 Y141.666
G1 X55.11 Y141.816
;WIPE_END
G1 X58.926 Y141.825 Z.4 F4500
G1 X166.126 Y142.057 Z.4
G1 Z.2
G1 E1 F1800
;TYPE:Bottom surface
;WIDTH:0.711415
G1 X165.363 Y141.294 E.05697
G1 E-1 F2400
;WIPE_START
G1 F1800
G1 X166.126 Y142.057
;WIPE_END
G1 X166.119 Y138.241 Z.4 F4500
G1 X165.991 Y62.129 Z.4
G1 Z.2
G1 E1 F1800
;WIDTH:0.700747
G1 X164.921 Y61.059 E.07858
; stop printing object right_part.stl id:7883381218931470447 copy 0
;TIME_ELAPSED:89.321396

M106 S255
;LAYER_CHANGE
;Z:0.36
;HEIGHT:0.16
;BEFORE_LAYER_CHANGE
;0.36
G92 E0

G1 E-1 F2400
;WIPE_START
G1 F1800
G1 X165.991 Y62.129
;WIPE_END
;_SET_FAN_SPEED_CHANGING_LAYER
M204 P2500
M104 S195 ; set nozzle temperature
M140 S50 ; set bed temperature
; printing object right_part.stl id:7883381218931470447 copy 0
M204 T2500
G1 X162.821 Y64.254 Z.4 F9000
G1 X54.764 Y136.711 Z.4
G1 Z.36
G1 E1 F1800
M204 P2000
M205 X10 Y10
;TYPE:Inner wall
;WIDTH:0.449999
G1 F5400
G1 X54.764 Y140.592 E.10196
G1 X54.883 Y140.948 E.00986
G1 X55.13 Y141.14 E.0082
G1 X55.358 Y141.186 E.00611
G1 X164.728 Y141.186 E2.87287
G1 X165.062 Y141.012 E.0099
G1 X165.227 Y140.695 E.00939
G1 X165.236 Y140.592 E.0027
G1 X165.236 Y62.408 E2.05371
G1 X165.062 Y61.988 E.01193
G1 X164.642 Y61.814 E.01193
G1 X55.272 Y61.814 E2.87287
G1 X54.938 Y61.988 E.0099
G1 X54.764 Y62.408 E.01193
G1 X54.764 Y63.077 E.01757
G1 X53.461 Y63.077 E.03424
G1 X53.461 Y60.511 E.06741
G1 X166.539 Y60.511 E2.9703
G1 X166.539 Y142.489 E2.15338
G1 X70.833 Y142.489 E2.51397
G1 X70.477 Y142.608 E.00986
G1 X70.285 Y142.855 E.0082
G1 X70.239 Y143.083 E.00611
G1 X70.239 Y159.489 E.43096
G1 X53.461 Y159.489 E.44073
G1 X53.461 Y136.711 E.59834
G1 X54.724 Y136.711 E.03319
M205 X8 Y8
G1 X55.156 Y136.152 F9000
M204 P1000
M205 X10 Y10
;TYPE:Outer wall
;WIDTH:0.43803
G1 F3600
G1 X55.165 Y136.518 E.00933
;WIDTH:0.419999
G1 X55.165 Y140.592 E.0993
G1 X55.204 Y140.708 E.00297
G1 X55.358 Y140.785 E.0042
G1 X164.642 Y140.785 E2.66344
G1 X164.779 Y140.729 E.0036
G1 X164.835 Y140.592 E.0036
G1 X164.835 Y62.408 E1.90548
G1 X164.779 Y62.271 E.0036
G1 X164.642 Y62.215 E.0036
G1 X55.358 Y62.215 E2.66344
G1 X55.221 Y62.271 E.0036
G1 X55.165 Y62.425 E.00399
;WIDTH:0.434996
G1 X55.158 Y63.67 E.03153
G1 X54.957 Y63.478 E.00704
;WIDTH:0.419999
G1 X53.06 Y63.478 E.04624
G1 X53.06 Y60.11 E.08207
G1 X166.94 Y60.11 E2.77545
G1 X166.94 Y142.89 E2.01749
G1 X70.833 Y142.89 E2.34229
G1 X70.717 Y142.929 E.00297
G1 X70.64 Y143.083 E.0042
G1 X70.64 Y159.89 E.40962
G1 X53.06 Y159.89 E.42845
G1 X53.06 Y136.31 E.57468
G1 X54.957 Y136.31 E.04624
;WIDTH:0.43803
G1 X55.125 Y136.177 E.00546
M205 X8 Y8
G1 X55.156 Y136.152 F9000
M205 X10 Y10
G1 F3600
G1 X55.158 Y136.117 E.00089
;WIDTH:0.434996
G1 X55.158 Y107.083 E.73513
M205 X8 Y8
G1 E-1 F2400
;WIPE_START
G1 F3600
G1 X55.158 Y109.083
;WIPE_END
G1 X55.062 Y105.268 Z.56 F9000
G1 X54.764 Y93.298 Z.56
G1 Z.36
G1 E1 F1800
M204 P2000
M205 X10 Y10
;TYPE:Inner wall
;WIDTH:0.449999
G1 F5400
G1 X54.764 Y106.489 E.3465
G1 X53.461 Y106.489 E.03424
G1 X53.461 Y93.298 E.3465
G1 X54.724 Y93.298 E.03319
M205 X8 Y8
G1 X55.156 Y92.74 F9000
M204 P1000
M205 X10 Y10
;TYPE:Outer wall
;WIDTH:0.43803
G1 F3600
G1 X55.158 Y92.705 E.00089
;WIDTH:0.434996
G1 X55.158 Y63.67 E.73513
M205 X8 Y8
G1 E-1 F2400
;WIPE_START
G1 F3600
G1 X55.158 Y65.67
;WIPE_END
G1 X55.157 Y69.487 Z.56 F9000
G1 X55.156 Y92.74 Z.56
G1 Z.36
G1 E1 F1800
M205 X10 Y10
;WIDTH:0.43803
G1 F3600
G1 X55.165 Y93.105 E.00933
;WIDTH:0.419999
G1 X55.165 Y105.838 E.3103
;WIDTH:0.434996
G1 X55.158 Y107.083 E.03153
G1 X54.957 Y106.89 E.00704
;WIDTH:0.419999
G1 X53.06 Y106.89 E.04624
G1 X53.06 Y92.897 E.34102
G1 X54.957 Y92.897 E.04624
;WIDTH:0.43803
G1 X55.125 Y92.764 E.00546
G1 E-1 F2400
;WIPE_START
G1 F3600
G1 X55.165 Y93.105
G1 X55.165 Y94.762
;WIPE_END
M205 X8 Y8
G1 X54.335 Y106.06 Z.56 F9000
G1 Z.56
G1 Z.36
G1 E1 F1800
M204 P2500
M205 X10 Y10
;TYPE:Internal solid infill
;WIDTH:0.478343
G1 F10134.975
G1 X54.335 Y93.728 E.34601
G1 X53.89 Y93.728 E.01246
G1 X53.89 Y106.06 E.34601
G1 X54.295 Y106.06 E.01134
M205 X8 Y8
G1 E-1 F2400
;WIPE_START
G1 F10134.975
G1 X53.89 Y106.06
G1 X53.89 Y104.464
;WIPE_END
G1 X53.942 Y108.279 Z.56 F9000
G1 X54.335 Y137.141 Z.56
G1 Z.36
G1 E1 F1800
M205 X10 Y10
;WIDTH:0.481415
G1 F10065.348
G1 X53.891 Y137.141 E.01255
G1 X53.894 Y140.732 E.10146
;WIDTH:0.468278
G1 F10370.068
G1 X53.877 Y141.011 E.00766
;WIDTH:0.420579
G1 F10800
G1 X53.861 Y141.29 E.00682
G1 X53.861 Y143.849 E.06245
G1 X56.124 Y141.586 E.07809
G1 X55.358 Y141.586 E.01869
G1 X54.931 Y141.484 E.01071
G1 X54.54 Y141.15 E.01257
;WIDTH:0.436092
G1 X54.442 Y140.94 E.00586
;WIDTH:0.482148
G1 F10048.858
G1 X54.344 Y140.731 E.00654
G1 X54.335 Y137.181 E.10048
M205 X8 Y8
G1 X55.068 Y141.997 F9000
M205 X10 Y10
;WIDTH:0.560309
G1 F8555.572
G1 X54.716 Y141.888 E.01227
G1 X54.318 Y141.586 E.0166
G1 X54.317 Y142.748 E.03864
G1 X55.04 Y142.025 E.03398
M205 X8 Y8
G1 X53.625 Y144.576 F9000
M205 X10 Y10
;WIDTH:0.421427
G1 F10800
G1 X56.678 Y141.524 E.1056
G1 X56.786 Y141.524 E.00264
G1 X56.804 Y141.542 E.00062
G1 X57.207 Y141.542 E.00987
G1 X53.799 Y144.95 E.11791
G1 X53.799 Y145.498 E.01339
G1 X57.755 Y141.542 E.13685
G1 X58.302 Y141.542 E.01339
G1 X53.799 Y146.045 E.15579
G1 X53.799 Y146.593 E.01339
G1 X58.85 Y141.542 E.17473
G1 X59.397 Y141.542 E.01339
G1 X53.799 Y147.14 E.19366
